X:1
T:Intrada
T:Intrada
T:Georg Philipp Telemann
C:Georg Philipp Telemann
%%score { 1 | 2 | 3 | 4 }
L:1/8
Q:1/4=104
M:4/4
K:F
V:1 treble nm="Klavier" snm="Klav."
V:2 treble 
V:3 bass 
V:4 bass 
V:1
"^festlich, straff punktiert"!mf! F4 z4 | A4 z4 |!f!!>(! c2 A2!>)! z2!mf! c>c | %3
!>(! c4 z2!>)!!<(! c>c!<)! |!>(! c4 z2!>)!!p! c>c | c2 B>B!<(! B2 A>A | A2 B>B B2 c>c!<)! | %7
!f! c2 B>A G>G A>B |!>(! A2!>)! F2 z4 |!>(! A4!>)! z4 |!f!!>(! c2 A2!>)! z2!mf! A>A | %11
!>(! G4 z2!>)!!<(! c>c!<)! |!>(! A4 z2!>)!!<(! d>d!<)! | c4 z4 |!>(! c4!>)! z4 | %15
!f!!>(! c2 G2!>)! z3/2!mf! (=B/ c>A) | (=B>B c>d) G2 z2 | z4 z3/2!mp! G/ E>C | %18
!>(! A2 z2!>)! z3/2 A/!<(! F>D!<)! |!>(! =B2 z2!>)! z3/2 B/ G>E |!>(! c2 z2!>)! z3/2!f! c/ A>F | %21
 d>d c>c =B>B A>A | G>G F>F E>E D>D |!>(! C2 F2!>)! z3/2!mf! E/ F>D | E2!>(! c2 D2 =B2 | %25
 !breath!c2!>)!!p! G>G G4- | G8- | !breath!G2 G>G G4- |!<(! G8-!<)! | !breath!G2!p! c>c c4 | (c8 | %31
 !breath!c2) c>c c4- |!<(! c8-!<)! | c4 z2!p! c>c |!<(! c2 (A/B/).A (B/c/).B (c/d/).c | %35
 d2 (=B/c/).B (c/d/).c (d/e/).d | e2 (e/f/).e (d/e/).d (e/f/).e!<)! |!f! f4 z2!mf! c>c | %38
!>(! c4!>)! z2!mp! c>c |!<(! B2 (c/d/).c (B/c/).B (A/B/).A | G2 (G/A/).G (c/d/).c (B/c/).B | %41
 (A/B/).A (G/A/).G (B/c/).B (A/B/).A | d2 (d/_e/).d (B/c/).B (c/d/).c!<)! |!f! c4 z2 c>c | %44
 B>B c>d!>(! (B3 A)!>)! |!mf! !breath!A2!<(! c>c c>c c>c!<)! |!>(! (A>F)!>)!!<(! c>c c>c c>c!<)! | %47
!>(! A4 z2!>)!!f! c>c | (A>B c>d) (G>A B>c) | (A3 G)"^rit." (G3 F) | !fermata!F8 |] %51
V:2
!mf! !breath!C2 A,>A, C>C F>F | !breath!F2 =C>C!<(! F>F A>A!<)! |!f!!>(! A2 F2!>)! z2!mf! A>A | %3
!>(! G4 z2!>)!!<(! F>F!<)! |!>(! E4 z2!>)!!p! F>F | F2 G>G!<(! G2 E>E | F2 F>F G2 G>G!<)! | %7
!f! A2 F>F F>F F>E |!>(! !breath!F2!>)! A,>A, C>C F>F |!>(! !breath!F2!>)! C>C!<(! F>F A>A!<)! | %10
!f!!>(! A2 F2!>)! z2!mf! F>F |!>(! G4 z2!>)!!<(! G>G!<)! |!>(! F4 z2!>)!!<(! G>G!<)! | %13
 !breath!E2 G,>G, C>C E>E |!>(! !breath!G2!>)! C>C!<(! E>E G>G!<)! |!f!!>(! G2 E2!>)! z2!mf! D2 | %16
 D4 z4 | z4 z2!mp! G,2 |!>(! C2 D2!>)! z2!<(! A,2!<)! |!>(! D2 E2!>)! z2 =B,2 | %20
!>(! E2 F2!>)! z2!f! F2 | F>F F>F G>G C>C | C>C =B,>B, C>C G,>G, |!>(! A,2 C2!>)! z2!mf! D2 | %24
 C4 z2!>(! D2 | E4!>)! z2!mp! E>E | D2 (F2 E2 D2) |!>(! (E>D E2)!>)! z2 (E/F/)E | %28
!<(! (D/E/).D (F/G/).F (E/F/).E (D/E/).D!<)! | (E>D E2) z4 | z3/2!p! C/ C>C C>C C>C | C2 C2 z4 | %32
 z8 | z4 z2!p! A>A |!<(! F2 FF FFFF | F2 GG GGGG | G2 AA AAAA!<)! |!f! A4 z2!mf! G>G | %38
!>(! F4!>)! z2!mp! F>F |!<(! F2 F>F E>E F>F | E2 E>E F>F E>E | F2 G>G F>F F>F | %42
 F2 (B/c/).B (G/A/).G G>G!<)! |!f! G4 z2 A>A | F>F F>B!>(! (G3 F)!>)! |!mf! F4 z2!<(! G>G!<)! | %46
!>(! F4!>)! z2!<(! E>E!<)! |!>(! F4 z2!>)!!f! E>E | (F>G A2) E2 (F>G) | F2 F2 (F2 E2) | %50
 !fermata!C8 |] %51
V:3
!mf! !breath!A,2 F,>F, A,>A, C>C | !breath!C2 A,>A,!<(! C>C F>F!<)! |!f!!>(! F2 C2!>)! z2!mf! C>C | %3
!>(! G,>C C>C C>C!>)!!<(! A,>A,!<)! |!>(! G,>C C>C C>C!>)!!p! C>C | D2 D2!<(! E2 C>C | %6
 A,2 D2 C2 G,>G,!<)! |!f! C2 D>C C>C C>C |!>(! !breath!C2!>)! F,>F, A,>A, C>C | %9
!>(! !breath!C2!>)! A,>A,!<(! C>C F>F!<)! |!f!!>(! F2 C2!>)! z2!mf! D>D | %11
!>(! D>(D E>=B, C2)!>)!!<(! C>C!<)! |!>(! C>(C D>A, =B,2)!>)!!<(! B,>B,!<)! | %13
 !breath!G,2 E,>E, G,>G, C>C |!>(! !breath!E2!>)! G,>G,!<(! C>C E>E!<)! |!f!!>(! E2 C2!>)! z4 | %16
 z4 z3/2!mf! (=B,/ C>A,) | (=B,>B, C>D) G,2 z2 | z3/2!mp! C/ A,>F, D2!<(! z2!<)! | %19
 z3/2 D/!>(! =B,>G, E2!>)! z2 | z3/2 E/!>(! C>A, !breath!F2!>)!!f! C2 | =B,>B, C>C D>D A,>A, | %22
 C>C G,>G, G,>G, G,>G, |!>(! C,2 C,2!>)! z2!mf! G,2 | G,2!>(! G,2- A,2 G,2 | G,4!>)! z2!mp! C>C | %26
 =B,2 (D2 C2 B,2) |!>(! (C>=B, C2)!>)! z2 (C/D/)C | %28
!<(! (=B,/C/).B, (D/E/).D (C/D/).C (!courtesy!=B,/C/).B,!<)! | (C>=B, C2) z2!mp! A,>A, | %30
 G,2 (B,2 A,2 G,2) | (A,>G, A,2) z2 (A,/B,/).A, | %32
!<(! (G,/A,/).G, (B,/C/).B, (A,/B,/).A, (G,/A,/).G,!<)! | (A,>G, A,2) z2!p! C>C | %34
!<(! C2 C2 B,2 A,2 | F,2 (D2 C2 =B,2 | G,2) (^C2 D2 A,2)!<)! |!f! (D>A, D2) z3/2!mf! A,/ B,>G, | %38
!>(! (A,2 _E2)!>)! z3/2!mp! D/ E>C |!<(! D2 C>C C>C C>C | C2 C>C C>C C>C | C2 C>C B,>B, F,>F, | %42
 F,2 D>D D>D D>D!<)! |!f! (E>C E2) z3/2 E/ F>F | D>D C>F!>(! C3 C!>)! |!mf! C4 z2!<(! C>C!<)! | %46
!>(! C4!>)! z2!<(! C>C!<)! |!>(! C>C C>C C>!breath!C!>)!!f! C2 | C2 C2 C2 F,>C | C>B, C>D C2 C2 | %50
 !fermata!A,8 |] %51
V:4
!mf! F,4 z4 | F,,4 z4 |!f!!>(! F,2 F,,2!>)! z2!mf! F,>F, |!>(! E,4 z2!>)!!<(! F,>F,!<)! | %4
!>(! C,4 z2!>)!!p! A,,>A,, | B,,2 B,,2!<(! C,2 C,>C, | D,2 D,2 E,2 E,>E,!<)! | %7
!f! F,2 B,,2 C,>B,, C,>C, |!>(! F,2!>)! F,,2 z4 |!>(! F,2!>)! F,,2 z4 | %10
!f!!>(! F,2 F,,2!>)! z2!mf! F,>F, |!>(! E,2 E,2 z2!>)!!<(! A,,>A,,!<)! | %12
!>(! D,2 D,2 z2!>)!!<(! G,,>G,,!<)! | C,2 C,2 z4 |!>(! C,2!>)! C,2 z4 | %15
!f!!>(! C,2 C,2!>)! z2!mf! ^F,2 | G,4 z2 [^F,,D,]2 | [G,,D,]4 z2!mp! C,2 | %18
!>(! F,,2 F,2!>)! F,2!<(! F,,2!<)! |!>(! G,,2 G,2!>)! G,2 G,,2 | %20
!>(! A,,2 A,2!>)! !breath!A,2!f! A,2 | =B,>B, A,>A, G,>G, F,>F, | E,>E, D,>D, C,>C, =B,,>B,, | %23
!>(! A,,2 A,,2!>)! z2!mf! =B,,2 | C,2!>(! (E,2 F,2 G,2) | C,4!>)! z4 | %26
 z3/2!p! G,/ G,>G, G,>G, G,>G, |!>(! C,2 C,2!>)! z4 | z8 | C,2 C,2 z2!mp! F,>F, | %30
 E,2 (G,2 F,2 E,2) | F,2 F,2 z2 (F,/G,/).F, | %32
!<(! (E,/F,/).E, (G,/A,/).G, (F,/G,/).F, (E,/F,/).E,!<)! | F,2 F,2 z2!p! F,,2 | %34
!<(! A,,2 F,,2 G,,2 A,,2 | B,,2 (G,,2 A,,2 =B,,2 | C,2) (A,,2 =B,,2 ^C,2!<)! | %37
!f! D,4) z3/2!mf! F,/ E,>E, |!>(! F,4!>)! z3/2!mp! B,/ A,>A, |!<(! B,2 A,>A, G,>G, F,>F, | %40
 C,2 B,>B, A,>A, G,>G, | F,2 E,>E, D,>D, C,>C, | B,,2 B,,>B,, B,,>B,, B,,>B,,!<)! | %43
!f! B,,4 z3/2 B,,/ A,,>A,, | B,,>B,, A,,>B,,!>(! C,2 C,2!>)! |!mf! F,4 z2!<(! E,2!<)! | %46
!>(! F,4!>)! z2!<(! C,2!<)! |!>(! F,4 z2!>)!!f! C,2 | F,,4 C,>(C, D,>E,) | F,2 A,,>B,, C,2 C,2 | %50
 !fermata!F,,8 |] %51

